<?xml version="1.0" encoding="UTF-8"?>
<map version="1.10" tiledversion="1.12.2" orientation="orthogonal" renderorder="right-down" width="30" height="20" tilewidth="32" tileheight="32" infinite="0" nextlayerid="5" nextobjectid="6">
 <tileset firstgid="1" source="../tilesets/Tiny Top Down Tiles 32x32.tsx"/>
 <tileset firstgid="101" source="../tilesets/decorations.tsx"/>
 <layer id="1" name="floor" width="30" height="20">
  <data encoding="csv">
0,0,0,0,0,0,0,0,0,0,0,0,0,0,0,0,0,0,0,0,0,0,0,0,0,0,0,0,0,0,
0,72,72,72,72,72,72,72,72,0,62,82,82,82,82,82,82,82,82,82,82,82,82,82,82,82,82,82,82,0,
0,62,72,72,82,72,72,72,72,0,82,82,82,62,82,82,82,82,82,82,82,82,62,82,82,52,82,82,82,82,
0,72,72,72,62,52,82,72,62,62,82,82,82,82,82,82,82,82,82,72,82,82,82,82,82,82,82,82,82,82,
0,72,72,72,72,72,72,72,72,0,82,82,52,82,72,82,62,82,82,82,82,82,82,82,72,82,52,82,82,82,
0,72,72,82,72,72,72,72,72,0,82,82,82,82,82,82,82,82,82,82,82,82,82,82,62,82,82,82,82,0,
0,72,72,72,72,72,72,72,72,0,82,82,82,82,82,82,82,82,82,82,82,82,62,82,82,82,82,82,82,0,
0,72,72,72,72,72,72,72,72,0,52,82,82,82,82,82,52,82,72,82,82,82,82,82,82,82,82,82,82,0,
0,72,72,72,52,72,72,72,72,44,82,72,82,82,82,82,82,82,82,82,82,62,82,62,82,82,82,82,82,0,
0,72,72,72,72,72,72,72,52,0,82,82,82,82,72,82,82,82,82,72,82,82,82,82,82,72,82,82,82,0,
0,72,52,72,72,72,52,72,72,0,82,82,82,82,82,82,82,82,82,62,82,82,82,82,62,82,82,82,82,0,
0,72,72,72,72,72,72,72,72,0,82,0,0,82,82,0,0,0,0,82,82,82,44,82,82,82,0,0,0,0,
0,72,82,72,72,72,72,62,72,0,82,72,82,82,82,82,82,82,82,52,82,82,82,82,82,82,82,82,72,82,
0,72,72,72,52,72,72,72,72,0,82,82,82,52,82,82,82,82,82,82,82,82,82,82,82,82,82,82,82,82,
0,72,72,72,72,72,72,72,72,0,82,82,82,82,82,82,82,82,82,82,82,82,82,82,82,82,82,82,82,0,
0,72,72,72,72,72,72,72,72,82,82,82,82,82,82,82,72,52,82,82,82,82,82,82,82,72,82,82,82,0,
0,62,72,72,60,72,82,72,72,82,72,52,82,82,82,82,82,82,82,82,82,82,82,82,82,82,82,82,82,0,
0,72,72,62,72,72,72,72,72,0,82,82,82,82,82,82,82,82,82,72,82,82,82,82,82,82,82,82,82,0,
0,72,72,72,72,72,72,72,72,0,82,82,82,82,82,82,82,82,82,82,82,82,82,72,82,82,82,82,82,82,
0,0,0,0,0,0,0,0,0,0,0,0,0,0,0,0,82,82,82,82,82,82,0,0,0,82,82,0,82,0
</data>
 </layer>
 <layer id="4" name="decorations" width="30" height="20">
  <data encoding="csv">
0,0,0,0,0,0,0,0,0,0,0,0,0,0,0,0,0,0,0,0,0,0,0,0,0,0,0,0,0,0,
0,0,0,0,212,0,0,0,0,0,0,0,0,0,0,0,0,0,0,0,0,0,0,0,0,0,0,0,0,0,
0,0,0,0,0,0,192,0,0,0,0,0,0,0,0,0,0,0,0,0,0,0,0,0,0,0,0,237,0,0,
0,0,0,0,0,0,0,0,0,0,0,0,0,192,0,0,0,0,0,212,0,0,0,0,0,0,0,0,0,0,
0,0,0,0,0,0,0,0,0,0,0,0,212,0,0,0,0,0,0,0,0,0,0,0,0,0,0,0,0,0,
0,0,0,0,0,0,212,0,0,0,0,0,0,0,0,0,0,0,0,0,0,0,237,0,0,0,0,0,0,0,
0,0,0,240,0,0,0,0,0,0,0,0,0,0,0,0,0,0,0,0,192,0,0,0,0,0,0,0,0,0,
0,0,0,0,0,0,0,0,0,0,0,0,0,0,0,0,0,0,0,0,0,0,0,0,0,0,0,0,0,0,
0,0,0,0,0,0,0,0,0,0,0,0,0,0,0,0,0,0,0,0,0,0,0,0,0,0,0,0,0,0,
0,0,192,0,0,0,0,0,0,0,0,0,0,240,0,0,0,0,0,0,0,0,0,0,0,212,0,0,192,0,
0,0,0,0,0,0,0,0,0,0,0,0,0,0,0,0,0,0,0,0,0,0,0,0,0,0,0,0,0,0,
0,0,0,0,0,0,0,0,0,0,0,0,0,0,0,0,0,0,0,0,0,0,0,0,0,0,0,0,0,0,
0,0,0,0,0,0,192,0,0,0,0,0,0,0,0,0,0,0,0,0,0,0,0,0,0,0,0,0,0,0,
0,212,0,0,0,0,0,0,0,0,0,0,0,0,0,0,0,0,0,0,0,0,0,0,0,0,0,0,0,0,
0,0,0,0,0,0,0,0,0,0,0,0,0,0,0,0,0,0,0,0,0,0,0,0,0,0,0,212,0,0,
0,0,0,0,0,0,0,0,0,0,0,212,0,0,0,0,0,0,0,0,0,0,0,0,0,0,0,0,0,0,
0,0,0,0,0,0,0,0,0,0,0,0,0,0,0,0,0,0,0,0,0,0,0,0,0,0,0,0,0,0,
0,0,0,0,0,0,0,0,0,0,0,0,0,0,0,0,0,0,0,212,0,0,0,0,0,0,0,0,0,0,
0,0,0,0,0,0,0,0,212,0,0,0,0,0,0,0,0,0,0,0,0,0,0,0,0,0,0,0,0,0,
0,0,0,0,0,0,0,0,0,0,0,0,0,0,0,0,0,0,0,0,0,0,0,0,0,0,0,0,0,0
</data>
 </layer>
 <objectgroup id="3" name="objects">
  <object id="1" type="PlayerSpawn" x="142" y="526">
   <point/>
  </object>
  <object id="5" type="DungeonExit" x="849.333" y="620">
   <point/>
  </object>
 </objectgroup>
 <layer id="2" name="walls" width="30" height="20">
  <data encoding="csv">
2,12,12,12,12,2,12,12,12,2,12,12,12,12,12,12,12,12,12,12,12,12,12,12,12,12,12,12,12,2,
12,0,0,0,0,0,0,0,0,12,0,0,0,0,0,0,0,0,0,0,0,0,0,0,0,0,0,0,0,12,
12,0,0,0,0,0,0,0,0,12,0,0,0,0,0,0,0,0,0,0,0,0,0,0,0,0,0,0,0,12,
12,0,0,0,0,0,0,0,0,12,0,0,0,0,0,0,0,0,0,0,0,0,0,0,0,0,0,0,0,12,
12,0,0,0,0,0,0,0,0,12,0,0,0,0,0,0,0,0,0,0,0,0,0,0,0,0,0,0,0,12,
12,0,0,0,0,0,0,0,0,12,0,0,0,0,0,0,0,0,0,0,0,0,0,0,0,0,0,0,0,12,
12,0,32,0,0,0,0,0,0,12,0,0,0,0,0,32,0,0,0,0,0,0,0,0,0,0,0,0,0,12,
12,0,0,0,0,0,0,32,0,2,0,0,0,0,0,0,0,0,0,0,0,0,0,0,0,0,0,0,0,12,
12,0,0,0,0,0,0,0,0,0,0,0,0,0,0,0,0,0,0,0,0,0,0,0,0,0,0,0,0,12,
12,0,0,0,0,0,0,0,0,2,0,0,0,0,0,0,32,0,0,0,0,0,0,0,0,0,0,0,0,12,
12,0,0,0,0,0,0,0,0,12,0,0,0,0,0,0,0,0,0,0,0,0,0,0,0,0,0,0,0,12,
12,0,0,0,0,0,0,0,0,12,12,12,12,12,12,12,12,12,12,12,12,12,0,12,12,12,12,12,12,12,
12,0,0,0,0,0,0,0,0,12,0,0,0,0,0,0,0,0,0,0,0,0,0,0,0,0,0,0,0,12,
12,0,0,0,0,0,0,0,0,12,0,0,0,0,0,0,0,0,0,32,0,0,0,0,0,0,0,0,0,12,
12,0,0,0,0,0,0,0,0,12,0,0,0,0,0,0,0,0,0,0,0,0,0,0,0,0,0,0,0,12,
12,0,0,0,0,0,0,0,0,12,0,0,0,0,0,0,0,0,0,0,0,0,0,0,0,0,0,0,0,12,
12,0,0,0,0,0,0,0,0,12,0,0,0,0,0,0,32,0,0,0,0,0,0,32,0,0,0,0,0,12,
12,0,0,0,0,0,0,0,0,12,0,0,0,0,0,0,0,0,0,0,0,0,0,0,0,0,0,0,0,12,
12,0,0,0,0,0,0,0,0,12,0,0,0,0,0,0,0,0,0,0,0,0,0,0,0,0,0,0,0,12,
2,12,12,12,12,12,12,12,12,2,12,12,12,12,12,12,12,12,12,12,12,12,12,12,12,12,92,2,12,2
</data>
 </layer>
</map>
